icons/glyphs/glyph-smiley.svg

<?xml version="1.0" encoding="UTF-8" standalone="no"?><svg height="16" viewBox="0 0 4.2333332 4.2333332" width="16" xmlns="http://www.w3.org/2000/svg" xmlns:xlink="http://www.w3.org/1999/xlink"><defs><linearGradient id="a" gradientTransform="matrix(.26458333 0 0 .26458333 -95.997565 -132.59022)" gradientUnits="userSpaceOnUse" x2="0" y1="522.79999" y2="492.79999"><stop offset="0" stop-color="#7cbaf8"/><stop offset="1" stop-color="#f4fcff"/></linearGradient></defs><sodipodi:namedview/><metadata><rdf:RDF><cc:Work><dc:format>image/svg+xml</dc:format><dc:type/><dc:title/></cc:Work></rdf:RDF></metadata><path d="m3.0714459.00063175-.2301664.1888922s.6456448.86212335.6448026 1.91419185c-.0008436 1.0529108-.5976321 1.8994511-.5976321 1.8994511l.1888921.2301663s1.0390123-.6542788 1.0400652-2.1289857c.0010506-1.4740752-1.0459614-2.1043475-1.0459614-2.1043475m-2.32272147.5224543h-.63153586l-.0006317.6317465h.63174637zm1.89460787 1.2655989-1.2634931-.00105v.6317463l1.2632823.00105zm-1.89523966 1.2620188h-.63174637v.6315359h.21037148c-.0002106.2105822-.21037148.2105822-.21037148.2105822l-.00042119.2103716.21058207.0004211c.4211643.0002106.4211643-.4209537.4211643-.4209537z" fill="url(#a)" stroke-linejoin="round" stroke-width=".529167"/></svg>

<?xml version="1.0" encoding="UTF-8" standalone="no"?>
<!-- Created with Inkscape (http://www.inkscape.org/) -->

<svg
   xmlns:dc="http://purl.org/dc/elements/1.1/"
   xmlns:cc="http://creativecommons.org/ns#"
   xmlns:rdf="http://www.w3.org/1999/02/22-rdf-syntax-ns#"
   xmlns:svg="http://www.w3.org/2000/svg"
   xmlns="http://www.w3.org/2000/svg"
   xmlns:sodipodi="http://sodipodi.sourceforge.net/DTD/sodipodi-0.dtd"
   xmlns:inkscape="http://www.inkscape.org/namespaces/inkscape"
   width="16"
   height="16"
   viewBox="0 0 4.2333332 4.2333332"
   version="1.1"
   id="svg8"
   inkscape:version="0.92+devel (b8837397f6, 2017-07-27, custom)"
   sodipodi:docname="glyph-smiley.svg">
  <defs
     id="defs2">
    <linearGradient
       id="c"
       y1="522.79999"
       y2="492.79999"
       x2="0"
       gradientUnits="userSpaceOnUse"
       gradientTransform="matrix(0.26458333,0,0,0.26458333,-95.997565,-132.59022)">
      <stop
         stop-color="#7cbaf8"
         id="stop12" />
      <stop
         offset="1"
         stop-color="#f4fcff"
         id="stop14" />
    </linearGradient>
  </defs>
  <sodipodi:namedview
     id="base"
     pagecolor="#002466"
     bordercolor="#ffffff"
     borderopacity="0.38039216"
     inkscape:pageopacity="1"
     inkscape:pageshadow="2"
     inkscape:zoom="36.415999"
     inkscape:cx="10.094581"
     inkscape:cy="7.9162778"
     inkscape:document-units="px"
     inkscape:current-layer="svg8"
     inkscape:document-rotation="0"
     showgrid="false"
     inkscape:showpageshadow="false"
     borderlayer="true"
     inkscape:window-width="1920"
     inkscape:window-height="1051"
     inkscape:window-x="0"
     inkscape:window-y="0"
     inkscape:window-maximized="1"
     units="px" />
  <metadata
     id="metadata5">
    <rdf:RDF>
      <cc:Work
         rdf:about="">
        <dc:format>image/svg+xml</dc:format>
        <dc:type
           rdf:resource="http://purl.org/dc/dcmitype/StillImage" />
        <dc:title></dc:title>
      </cc:Work>
    </rdf:RDF>
  </metadata>
  <path
     fill="url(#c)"
     d="m 3.0714459,6.3175e-4 -0.2301664,0.1888922 c 0,0 0.6456448,0.86212335 0.6448026,1.91419185 C 3.4852385,3.1566266 2.88845,4.0031669 2.88845,4.0031669 l 0.1888921,0.2301663 c 0,0 1.0390123,-0.6542788 1.0400652,-2.1289857 C 4.1184579,0.6302723 3.0714459,0 3.0714459,0 M 0.74872443,0.5224543 H 0.11718857 l -6.317e-4,0.6317465 H 0.74830324 Z M 2.6433323,1.7880532 1.3798392,1.7870032 v 0.6317463 l 1.2632823,0.00105 z M 0.74809264,3.050072 H 0.11634627 V 3.6816079 H 0.32671775 C 0.32650715,3.8921901 0.11634627,3.8921901 0.11634627,3.8921901 l -4.2119e-4,0.2103716 0.21058207,4.211e-4 c 0.4211643,2.106e-4 0.4211643,-0.4209537 0.4211643,-0.4209537 z"
     id="path23"
     inkscape:connector-curvature="0"
     style="fill:#d0d0d0;stroke-width:0.52916664;stroke-linejoin:round"
     inkscape:label="#" />
</svg>
